!! 00042] TT[TB
!! Zh. Ch. M-2945, M-83/5889), Peking LP 34416/19)
!!   Plattentitel: Hua
!!!OTL: Jian mian hua
!!!ARE: Asia, China,ÿHebei, Changli
!! Ethnic Group: Han
!! IV, 79, 2)                 , leichte Variante)
!!!SCT: C1182
!!!YEM: Copyright 1995, estate of Helmut Schaffrath.
**kern
*ICvox
*Ivox
*M2/4
*k[b-e-a-]
*E-:
{8ff
8dd
8cc
8g
=1
8ff
8dd
8cc
8g
=2
8.ff
16dd
8cc
16cc
16ee-
=3
8g
4b-
8cc
=4
2g}
=5
{8g
4g
16g
16g
=6
8ff
8dd
8cc
8cc
=7
8.e-
16f
8g
8g
=8
4f
4f}
=9
{4cc
4cc
=10
4cc
4cc}
=11
{16.g
32g
16g
16f
8e-
8b-
=12
8.g
16f
8e-
[8c
=13
8c]
8g
16.f
32g
16f
16e-
=14
8f
4c
8B-
=15
4c
4c}
=16
{8g
8g
8g
8dd
=17
4cc
4cc}
=18
{16.g
32g
16g
16f
8e-
8b-
=19
8.g
16f
8e-
[8c
=20
8c]
16g
16g
16.f
32g
16f
16e-
=21
8f
4c
8B-
=22
2c}
=23
{8g
8g
8g
8dd
=24
2cc}
==
!!!AGN: Xiaodiao. Caimian qingjing
!! Plattenhuelle kopiert.
!!    Mehrere Verzierungen, Glissandi.
!!!ONB: ESAC (Essen Associative Code) Database: CHINA
!!!AMT: simple duple
!!!AIN: vox
!!!EED: Helmut Schaffrath
!!!EEV: 1.0
*-
!!!ONB: Tied note syntax fixed by Craig Sapp, 2004/05/03/
